assets/efishery/ikan-streamline-mas-fill.svg

<svg width="24" height="25" viewBox="0 0 24 25" fill="none" xmlns="http://www.w3.org/2000/svg">
<path fill-rule="evenodd" clip-rule="evenodd" d="M11.8141 3.46418C10.2302 3.93335 8.63435 5.00971 7.44887 6.06842C6.85109 6.60227 6.33473 7.15196 5.96074 7.64916C5.77421 7.89714 5.61293 8.14548 5.49511 8.38293C5.38503 8.60478 5.27712 8.887 5.27713 9.18333C5.27715 9.72797 5.56568 10.1185 5.88967 10.3614C6.05311 10.484 6.23339 10.5766 6.41063 10.6474C6.13722 10.8996 5.89155 11.154 5.67937 11.4069C5.19616 11.3358 4.66158 11.127 4.13201 10.8297C3.48156 10.4645 2.91107 10.0067 2.55768 9.65333C2.29317 9.38882 1.87419 9.35966 1.57559 9.58499C1.20924 9.86143 1.01351 10.2368 1.00066 10.6664C0.989909 11.0261 1.11199 11.3692 1.21199 11.6209C1.26707 11.7596 1.32348 11.8915 1.37866 12.0205C1.55424 12.431 1.71732 12.8122 1.78481 13.2888C1.80498 13.4312 1.79081 13.6332 1.73632 13.9262C1.71 14.0678 1.67751 14.2151 1.64149 14.3767L1.63525 14.4047C1.60188 14.5544 1.56573 14.7165 1.53445 14.8781C1.41491 15.4957 1.27365 16.4906 1.99709 17.214C2.1461 17.363 2.3509 17.4424 2.5614 17.4329C2.7719 17.4233 2.96868 17.3257 3.10357 17.1638L3.19381 17.0554C3.60236 16.564 4.01431 16.0685 4.4774 15.7212C4.69746 15.5561 4.90328 15.4436 5.1032 15.3843C5.06264 15.4175 5.02205 15.4511 4.98178 15.485C4.57868 15.8244 4.07243 16.3016 3.83103 16.9051C3.71036 17.2068 3.79765 17.5518 4.04725 17.7598C5.66028 19.104 7.03131 19.3963 8.17776 18.9438C9.01945 18.6115 9.58432 17.9201 9.93505 17.4195C10.0904 17.4618 10.248 17.5018 10.4075 17.5395C10.2218 17.7651 10.0778 18.0543 10.0521 18.4134C10.0171 18.9039 10.2105 19.4275 10.6274 19.9834C11.055 20.5535 11.5793 20.8828 12.1763 20.7682C12.7055 20.6666 13.1004 20.2398 13.3756 19.8436C13.7788 19.263 14.0947 18.4929 14.3021 17.9207C15.7786 17.8521 17.1486 17.5116 18.3155 17.0399C17.2807 16.2294 16.4984 15.1988 16.1806 14.0688C15.8583 12.9227 16.0257 11.6997 16.8619 10.5729C17.3822 9.87196 18.1509 9.22126 19.1958 8.64328C18.4977 8.04748 17.681 7.5143 16.7774 7.17872C16.7768 7.07547 16.7548 6.97068 16.709 6.87073C16.6576 6.75874 16.6018 6.61836 16.5298 6.43619L16.5253 6.4248C16.457 6.25214 16.3777 6.05145 16.2871 5.84338C16.1031 5.42081 15.857 4.92985 15.5069 4.49304C15.1525 4.05078 14.6764 3.64526 14.0344 3.43064C13.3895 3.21506 12.6503 3.21649 11.8141 3.46418ZM15.0673 6.81738C15.018 6.69392 14.967 6.56899 14.9118 6.44219C14.7492 6.06869 14.5654 5.71684 14.3364 5.43106C14.1117 5.15073 13.8597 4.95385 13.5588 4.85325C13.2607 4.75359 12.8422 4.72408 12.2401 4.90241C10.9476 5.28529 9.54344 6.20893 8.44802 7.18721C7.90535 7.67185 7.46105 8.14991 7.15948 8.55083C7.00824 8.7519 6.90302 8.92021 6.83879 9.04966C6.81397 9.09967 6.79894 9.13659 6.78989 9.1616C6.86211 9.21566 7.00137 9.27877 7.20908 9.33069C7.40643 9.38003 7.61323 9.40662 7.77698 9.42026C7.856 9.42685 7.92136 9.43013 7.96602 9.43175C9.52285 8.38306 11.522 7.44099 13.5833 6.95351C14.0913 6.83338 14.5872 6.79304 15.0673 6.81738ZM8.43174 16.9165C8.17926 16.8148 7.9366 16.7074 7.70507 16.5952C7.34588 16.4211 7.00777 16.2328 6.69801 16.0327C6.63655 16.0828 6.57497 16.1317 6.51529 16.1788L6.38885 16.2781C6.23919 16.3955 6.09315 16.5101 5.94799 16.6323C5.78626 16.7685 5.64962 16.8953 5.53857 17.0135C6.60321 17.7495 7.24923 17.6977 7.62701 17.5485C7.93975 17.4251 8.19953 17.1932 8.43174 16.9165ZM4.84601 13.9015C4.80178 13.7378 4.77734 13.5683 4.77734 13.3939C4.77734 13.1827 4.81405 12.9725 4.87861 12.7661C4.34984 12.6186 3.84515 12.3888 3.39771 12.1376C3.23964 12.0489 3.08553 11.9557 2.93655 11.8597C3.07282 12.2135 3.20657 12.6306 3.27 13.0785C3.3254 13.4698 3.27292 13.8677 3.21104 14.2005C3.17917 14.3718 3.14104 14.5438 3.10557 14.703L3.10064 14.7251C3.0811 14.8128 3.06242 14.8966 3.04497 14.9782C3.21326 14.8163 3.39116 14.6608 3.57739 14.5212C3.94 14.2492 4.36695 14.0129 4.84601 13.9015ZM15.3288 13.3213C15.2043 13.2435 14.9461 13.1262 14.6616 13.0195C14.3672 12.909 13.9984 12.7924 13.6414 12.73C13.3157 12.673 12.8767 12.637 12.5276 12.8142C12.3276 12.9157 12.1584 13.087 12.0773 13.3328C12.0016 13.5624 12.0197 13.8059 12.0798 14.0367C12.3179 14.9511 12.7728 15.596 13.4404 15.8363C14.1043 16.0753 14.796 15.8482 15.3592 15.4356C15.5819 15.2724 15.6302 14.9595 15.467 14.7368C15.3038 14.514 14.9909 14.4657 14.7681 14.6289C14.3532 14.9329 14.0121 14.9792 13.7791 14.8954C13.5498 14.8128 13.2438 14.5386 13.0475 13.7847C13.0371 13.7449 13.0319 13.7145 13.0294 13.6922C13.1007 13.6799 13.2415 13.6752 13.4692 13.715C13.7431 13.7629 14.0484 13.8575 14.3103 13.9558C14.4396 14.0043 14.5538 14.052 14.6429 14.0923C14.6875 14.1124 14.7242 14.1301 14.7526 14.1444C14.7667 14.1516 14.7778 14.1575 14.7861 14.1621C14.7949 14.1669 14.7985 14.1691 14.7985 14.1691C15.0326 14.3156 15.3411 14.2445 15.4876 14.0104C15.634 13.7763 15.5629 13.4678 15.3288 13.3213Z" fill="#1D1D1D"/>
<path fill-rule="evenodd" clip-rule="evenodd" d="M22.2773 13.3939C22.2773 13.094 22.1807 12.7657 22.065 12.4709C21.9421 12.1576 21.7678 11.8087 21.5531 11.4461C21.1641 10.7889 20.6232 10.0541 19.9629 9.3675C18.8618 9.93252 18.1236 10.5509 17.665 11.1689C17.0169 12.0421 16.9031 12.9441 17.1432 13.798C17.4325 14.8267 18.2511 15.8176 19.3543 16.5597C19.4441 16.5125 19.5321 16.4647 19.6183 16.4163C20.3706 15.994 21.0042 15.5163 21.4607 15.0351C21.8847 14.5883 22.2773 14.0108 22.2773 13.3939ZM19.5273 12.6834C19.5273 12.9595 19.3035 13.1834 19.0273 13.1834C18.7512 13.1834 18.5273 12.9595 18.5273 12.6834C18.5273 12.4072 18.7512 12.1834 19.0273 12.1834C19.3035 12.1834 19.5273 12.4072 19.5273 12.6834Z" fill="#1D1D1D"/>
</svg>

<svg viewBox="0 0 24 25" xmlns="http://www.w3.org/2000/svg">
  <path fill-rule="evenodd" clip-rule="evenodd" d="M11.814 3.464c-1.584.47-3.18 1.546-4.365 2.604A11.381 11.381 0 0 0 5.96 7.65a4.81 4.81 0 0 0-.466.734c-.11.222-.218.504-.218.8 0 .545.289.935.613 1.178.163.123.343.216.52.286a8.31 8.31 0 0 0-.73.76c-.484-.071-1.018-.28-1.548-.577a7.613 7.613 0 0 1-1.574-1.177.75.75 0 0 0-.982-.068A1.374 1.374 0 0 0 1 10.666c-.011.36.111.703.211.955.055.139.111.27.167.4.175.41.338.791.406 1.268.02.142.006.344-.049.637-.026.142-.058.29-.095.45l-.006.029c-.033.15-.07.312-.1.473-.12.618-.261 1.613.462 2.336a.75.75 0 0 0 1.107-.05l.09-.109c.408-.491.82-.986 1.283-1.334a2.02 2.02 0 0 1 .626-.337l-.121.101c-.403.34-.91.817-1.151 1.42a.75.75 0 0 0 .216.855c1.613 1.344 2.984 1.636 4.13 1.184.842-.332 1.407-1.024 1.758-1.524.155.042.313.082.473.12-.186.225-.33.514-.356.873-.035.49.159 1.014.575 1.57.428.57.952.9 1.55.785.529-.101.923-.528 1.199-.924.403-.581.719-1.351.926-1.923a12.3 12.3 0 0 0 4.014-.881c-1.035-.81-1.818-1.841-2.135-2.971-.323-1.146-.155-2.37.68-3.496.521-.701 1.29-1.352 2.335-1.93-.698-.596-1.515-1.129-2.419-1.464a.748.748 0 0 0-.068-.308 9.423 9.423 0 0 1-.18-.435l-.004-.011c-.068-.173-.147-.374-.238-.582-.184-.422-.43-.913-.78-1.35-.354-.442-.83-.848-1.473-1.062-.645-.216-1.384-.215-2.22.033zm3.253 3.353c-.049-.123-.1-.248-.155-.375-.163-.373-.347-.725-.576-1.01-.224-.281-.476-.478-.777-.579-.298-.1-.717-.129-1.319.05-1.292.382-2.697 1.306-3.792 2.284a9.906 9.906 0 0 0-1.289 1.364c-.15.2-.256.37-.32.499-.025.05-.04.087-.05.112.073.054.212.117.42.169a3.665 3.665 0 0 0 .757.1c1.557-1.048 3.556-1.99 5.617-2.477a5.263 5.263 0 0 1 1.484-.137zm-6.635 10.1c-.253-.102-.495-.21-.727-.322a9.481 9.481 0 0 1-1.007-.562c-.061.05-.123.099-.183.146l-.126.1c-.15.116-.296.231-.441.353a4.866 4.866 0 0 0-.41.381c1.065.736 1.711.685 2.089.535.313-.123.573-.355.805-.631zM4.846 13.9a1.94 1.94 0 0 1 .033-1.135 6.803 6.803 0 0 1-1.481-.628 8.831 8.831 0 0 1-.461-.278c.136.354.27.77.333 1.219.055.39.003.789-.059 1.121-.032.172-.07.344-.105.503l-.005.022-.056.253c.168-.162.346-.317.532-.457.363-.272.79-.508 1.269-.62zm10.483-.58a4.403 4.403 0 0 0-.667-.301 5.922 5.922 0 0 0-1.02-.29c-.326-.057-.765-.093-1.114.084a.886.886 0 0 0-.45.519c-.076.23-.058.473.002.704.238.914.693 1.559 1.36 1.8.664.238 1.356.011 1.92-.401a.5.5 0 0 0-.592-.807c-.415.304-.756.35-.989.266-.23-.082-.535-.356-.732-1.11a.66.66 0 0 1-.018-.093c.072-.012.213-.017.44.023a5.574 5.574 0 0 1 1.283.43 1.147 1.147 0 0 1 .046.024.5.5 0 1 0 .53-.848z"/>
  <path fill-rule="evenodd" clip-rule="evenodd" d="M22.277 13.394c0-.3-.096-.628-.212-.923a7.268 7.268 0 0 0-.512-1.025 11.557 11.557 0 0 0-1.59-2.079c-1.101.566-1.84 1.184-2.298 1.802-.648.873-.762 1.775-.522 2.629.29 1.029 1.108 2.02 2.211 2.762.09-.047.178-.095.264-.144.753-.422 1.386-.9 1.843-1.38.424-.448.816-1.025.816-1.642zm-2.75-.71a.5.5 0 1 1-1 0 .5.5 0 0 1 1 0z"/>
</svg>
